X:1
T:Do Not Pass Me By
T:Do Not Pass Me By
T:Peter Philip Bilhorn
T:Minnie H. Stephens, 1894
T:Public Domain Courtesy of the Cyber Hymnal™
C:Peter Philip Bilhorn
Z:Public Domain
Z:Courtesy of the Cyber Hymnal™
%%score 1 ( 2 3 )
L:1/8
Q:1/4=105
M:4/4
K:A
V:1 treble 
V:2 bass 
V:3 bass 
V:1
 [CE][A,C][CE][CA] [Ec]2 [CA]2 | [DB]4 [DF]4 | [DG][DG][DG][DG] [DF]2 [DE]2 | [Ec]6 z2 | %4
w: 1.~Do not pass me by, dear|Sav- ior,|Tho’ so full of sin I|am;|
w: 2.~I can on- ly plead, dear|Sav- ior,|Bring- ing now my- self to|Thee,|
w: 3.~Lord, the sins of all my|life- time|Now to Thee do I con-|fess;|
w: 4.~Do not pass me by, dear|Sav- ior,|Pur- i- fy me, Lord, I|cry;|
w: 5.~Now He is my Lord and|Sav- ior,|For He did not pass me|by;|
 [CE][A,C][CE][CA] [Ec]2 [CA]2 | [DB]4 [Fd]4 | [Ec][Ec][Ec][Fd] [Ec]2 [DB]2 | [CA]6 z2 || %8
w: Trem- bling- ly I seek Thy|fa- vor,|Help me, O Thou bleed- ing|Lamb!|
w: All Thy prom- is- es so|faith- ful,|And the love Thou gav- est|me.|
w: Turn- ing from the guilt that|was mine,|To Thy lov- ing ten- der-|ness.|
w: O for- give me, keep me,|save me,|Help me, do not pass me|by!|
w: In His love so won- drous|ten- der,|He has heard my hum- ble|cry.|
"^Refrain" [Ec]4 [CA]4 | [Fd]4 [Ec]4 | [DB][DF][DG][EA] [EB]2 [^Dc]2 | [EB]6 z2 | [Ec]4 [CA]4 | %13
w: |||||
w: |||||
w: Je- sus,|Sav- ior,|In my need to Thee I|cry.|Je- sus,|
w: |||||
w: |||||
 [Fd]4 [Ec]4 | [DB][DF][DG][Fd] [Ec]2 [DB]2 | [CA]6 z2 |] %16
w: |||
w: |||
w: Sav- ior,|Bless me, do not pass me|by.|
w: |||
w: |||
V:2
 [A,,A,][A,,E,][A,,A,][A,,E,] [A,,A,]2 [A,,A,]2 | [D,F,]4 [D,B,]4 | %2
w: ~ ~ ~ ~ ~ ~|~ ~|
 [E,B,][E,B,][E,B,][E,B,] [E,A,]2 [E,G,]2 | [A,,A,]6 z2 | %4
w: ~ ~ ~ ~ ~ ~|~|
 [A,,A,][A,,E,][A,,A,][A,,E,] [A,,A,]2 [A,,A,]2 | [D,F,]4 [B,,B,]4 | %6
w: ~ ~ ~ ~ ~ ~|~ ~|
 [E,A,][E,A,][E,A,][E,B,] [E,A,]2 [E,G,]2 | [A,,A,]6 z2 || [A,,A,]2 [A,,A,]2 [A,,A,]2 [A,,A,]2 | %9
w: ~ ~ ~ ~ ~ ~|~|Je- sus, Sav- ior,|
 A,2 A,2 A,2 [A,,A,]2 | [D,A,][D,A,][D,B,][D,A,] [B,,G,]2 [B,,A,]2 | G,6 B,,2 | %12
w: Je- sus, Sav- ior|~ ~ ~ ~ ~ ~|~ Je-|
 [A,,A,]2 [A,,A,]2 [A,,A,]2 [A,,A,]2 | A,2 A,2 A,2 [A,,A,]2 | %14
w: * sus, Sav- ior,|Je- sus, Sav- ior|
 [D,A,][D,A,][B,,B,][B,,B,] [E,A,]2 [E,G,]2 | [A,,A,]6 z2 |] %16
w: ||
V:3
 x8 | x8 | x8 | x8 | x8 | x8 | x8 | x8 || x8 | (D,E,) (F,G,) A,2 x2 | x8 | E,2 D,2 C,2 x2 | x8 | %13
 (D,E,) (F,G,) A,2 x2 | x8 | x8 |] %16

